!!!COM: Anonymous
!!!OTL: Aime qui vouldra
!!!AGN: Song; Chanson; Rondeau
!!!SCT: Ano3098
!!!SCA: Ano3098
!!!SMS: Dijon Chansonnier
!!!folio: 141v-142r
!!!SMS2: Col
!!!SMS3: Glog
!!!voices: 3
**kern	**kern	**kern
*staff3	*staff2	*staff1
*Ivox	*Ivox	*Ivox
*I"Contra	*I"Tenor	*I"Discantus
*I'C	*I'T	*I'D
*clefF4	*clefGv2	*clefG2
*k[]	*k[]	*k[]
*M2/1	*M2/1	*M2/1
*met(C|)	*met(C|)	*met(C|)
=1-	=1-	=1-
!!LO:TX:X=-40:Z=8:t=Mens. signs, sig. congr. are editorial
0F	1c	1r
.	1A	1cc
=2	=2	=2
0F	1c	1a
.	1A	1cc
=3	=3	=3
1c	1F	1a
1A	1r	1f
=4	=4	=4
0F	1.f	1r
.	.	1cc
.	2e	.
=5	=5	=5
0B-i	0d	1dd
.	.	[1ff
=6	=6	=6
1r	1c	2ff]
.	.	2ee
1B-i	1f	[1dd
=7	=7	=7
1G	1g	2dd]
.	.	2cc
1c	1e	[1cc
=8	=8	=8
0G	0d	2cc]
.	.	4b
.	.	4a
.	.	1b
=9	=9	=9
1A	0c	0cc
1F	.	.
=10	=10	=10
1B-i	1d	0r
2A	1e	.
2G	.	.
=11	=11	=11
1.F	[0f	1.a
2G	.	2b-i
=12	=12	=12
1A	0f]	1cc
[1B-i	.	[1dd
=13	=13	=13
1B-]	1d	1dd]
2A	1e	2cc
2G	.	2b-i
=14	=14	=14
1.F	1.f	1.a
2G	4e	4g
.	4d	4f
=15	=15	=15
1A	1c	1e
2D	1d	1f
2F	.	.
=16	=16	=16
1E	1e	1g
2D	1f	[1a
[2F	.	.
=17	=17	=17
2F]	1d	2a]
2G	.	2b
[1A	1c	[1cc
=18	=18	=18
2A]	1.A	2cc]
2B	.	2b
1c	.	2a
.	2B	2g
=19	=19	=19
0F	1c	1a
.	1A	[1f
=20	=20	=20
0C	0G	2f]
.	.	2e
.	.	2e
.	.	2d
=21	=21	=21
1r	0FN	0fN
1cN	.	.
=22	=22	=22
1A	1c	0r
1B-i	1d	.
=23	=23	=23
1A	1e	1r
1F	[1f	1cc
=24	=24	=24
1D	1f]	1dd
1C	1g	1ee
=25	=25	=25
0r	1d	1ff
.	[1g	2dd
.	.	[2ee
=26	=26	=26
0c	2g]	2ee]
.	2f	2cc
.	1e	[1cc
=27	=27	=27
0G	0d	2cc]
.	.	4b
.	.	4a
.	.	1b
=28	=28	=28
1A	1c	1cc
2G	[1d	2b-i
2D	.	[2a
=29	=29	=29
2.F	1d]	4a]
.	.	4g
.	.	2f
4G	.	.
1A	1c	1e
=30	=30	=30
1F	1A	1.f
1B-i	1G	.
.	.	2g
=31	=31	=31
1G	1d	1b-i
2A	1c	[1a
2F	.	.
=32	=32	=32
0G	0B-i	2a]
.	.	2g
.	.	2g
.	.	2f
=33	=33	=33
1r	0A	[0a
[1c	.	.
=34	=34	=34
2c]	0F	0a_
4B	.	.
4c	.	.
2d	.	.
2c	.	.
=35	=35	=35
1.A	1r	0a]
.	[1c	.
2F	.	.
=36	=36	=36
0F	2c]	0r
.	4B	.
.	4c	.
.	2d	.
.	2c	.
=37	=37	=37
0c	1.A	1r
.	.	[1cc
.	2F	.
=38	=38	=38
0A	0F	2cc]
.	.	4b
.	.	4cc
.	.	2dd
.	.	2cc
=39	=39	=39
1F	0f	1.a
[1D	.	.
.	.	2f
=40	=40	=40
1D]	1d	1f
1C	[1e	[1g
=41	=41	=41
0c	2e]	2g]
.	2d	2f
.	[1c	1e
=42	=42	=42
0G	2c]	0d
.	2B	.
.	2B	.
.	2A	.
=43	=43	=43
1A	1c	1c
1B	1G	2d
.	.	[2e
=44	=44	=44
2c	1A	2e]
2A	.	2f
1G	1B	[1g
=45	=45	=45
2E	1c	2g]
2F	.	1a
2D	1d	.
2G	.	2b
=46	=46	=46
1A	1c	1.cc
1F	[1f	.
.	.	[2a
=47	=47	=47
2A	2f]	2a]
2B-i	2d	2f
1G	1e	1g
=48	=48	=48
1.F	1.f	2.a
.	.	4b-i
.	.	2a
2G	4e	4g
.	4d	4f
=49	=49	=49
1A	0c	1e
1F	.	1a
=50	=50	=50
1G	1B-	2g
.	.	2f
2D	1A	1f
2F	.	.
=51	=51	=51
0C	0G	1f
.	.	1e
=52	=52	=52
0cl	0Fl	0fl
==	==	==
*-	*-	*-
!!!RDF**kern: l=long note in original notation
!!!RDF**kern: i=editorial accidental
!!!RDF**kern: N=signum congruentiae
!!!ENC: Chris Gage 09-28-2016
!!!END: 2018/09/27
!!!EED: Jesse Rodin
!!!EEV: 2018/11/29
!!!ONB: Translated from MusicXML and edited on 2018/11/29 by Craig Sapp
!!muse2ps: C^@{COM}\n@{SMS}, @{folio}; also @{SMS2}, @{SMS3}^v95,95,150Q16
